images/icons/instagram.svg

<svg width="38" height="38" viewBox="0 0 38 38" fill="none" xmlns="http://www.w3.org/2000/svg">
<path d="M19.0042 9.25521C13.6126 9.25521 9.26369 13.6041 9.26369 18.9958C9.26369 24.3874 13.6126 28.7363 19.0042 28.7363C24.3959 28.7363 28.7448 24.3874 28.7448 18.9958C28.7448 13.6041 24.3959 9.25521 19.0042 9.25521ZM19.0042 25.3284C15.52 25.3284 12.6716 22.4885 12.6716 18.9958C12.6716 15.5031 15.5115 12.6631 19.0042 12.6631C22.4969 12.6631 25.3369 15.5031 25.3369 18.9958C25.3369 22.4885 22.4885 25.3284 19.0042 25.3284ZM31.4152 8.85678C31.4152 10.1199 30.3979 11.1287 29.1432 11.1287C27.8801 11.1287 26.8713 10.1114 26.8713 8.85678C26.8713 7.60212 27.8886 6.58483 29.1432 6.58483C30.3979 6.58483 31.4152 7.60212 31.4152 8.85678ZM37.8665 11.1626C37.7224 8.11924 37.0272 5.42342 34.7977 3.20234C32.5766 0.98126 29.8808 0.286113 26.8374 0.133519C23.7007 -0.0445064 14.2993 -0.0445064 11.1626 0.133519C8.12772 0.277635 5.4319 0.972783 3.20234 3.19387C0.972783 5.41495 0.286113 8.11076 0.133519 11.1542C-0.0445064 14.2908 -0.0445064 23.6922 0.133519 26.8289C0.277635 29.8723 0.972783 32.5681 3.20234 34.7892C5.4319 37.0103 8.11924 37.7054 11.1626 37.858C14.2993 38.036 23.7007 38.036 26.8374 37.858C29.8808 37.7139 32.5766 37.0187 34.7977 34.7892C37.0187 32.5681 37.7139 29.8723 37.8665 26.8289C38.0445 23.6922 38.0445 14.2993 37.8665 11.1626ZM33.8143 30.1944C33.153 31.856 31.873 33.1361 30.2029 33.8058C27.7021 34.7977 21.7679 34.5688 19.0042 34.5688C16.2406 34.5688 10.2979 34.7892 7.80558 33.8058C6.144 33.1446 4.86392 31.8645 4.1942 30.1944C3.20234 27.6936 3.43123 21.7594 3.43123 18.9958C3.43123 16.2321 3.21082 10.2895 4.1942 7.7971C4.85544 6.13553 6.13553 4.85544 7.80558 4.18572C10.3064 3.19386 16.2406 3.42275 19.0042 3.42275C21.7679 3.42275 27.7105 3.20234 30.2029 4.18572C31.8645 4.84696 33.1446 6.12705 33.8143 7.7971C34.8061 10.2979 34.5772 16.2321 34.5772 18.9958C34.5772 21.7594 34.8061 27.7021 33.8143 30.1944Z" fill="white"/>
</svg>

<svg xmlns="http://www.w3.org/2000/svg" width="38" height="38" fill="none"><path fill="#fff" d="M19.004 9.255a9.725 9.725 0 0 0-9.74 9.74 9.725 9.725 0 0 0 9.74 9.741 9.725 9.725 0 0 0 9.74-9.74 9.725 9.725 0 0 0-9.74-9.74Zm0 16.073c-3.484 0-6.332-2.84-6.332-6.332a6.339 6.339 0 0 1 6.332-6.333 6.339 6.339 0 0 1 6.333 6.333c0 3.492-2.849 6.332-6.333 6.332ZM31.415 8.857a2.267 2.267 0 0 1-2.272 2.272 2.272 2.272 0 1 1 2.272-2.272Zm6.452 2.306c-.145-3.044-.84-5.74-3.07-7.96C32.578.98 29.882.285 26.838.132c-3.136-.178-12.538-.178-15.674 0-3.035.145-5.731.84-7.96 3.06C.972 5.416.285 8.112.132 11.155c-.178 3.137-.178 12.538 0 15.675.145 3.043.84 5.74 3.07 7.96 2.229 2.221 4.916 2.916 7.96 3.069 3.136.178 12.538.178 15.674 0 3.044-.144 5.74-.84 7.96-3.069 2.222-2.22 2.917-4.917 3.07-7.96.178-3.137.178-12.53 0-15.666Zm-4.053 19.031a6.411 6.411 0 0 1-3.611 3.612c-2.5.992-8.435.763-11.199.763-2.763 0-8.706.22-11.198-.763a6.411 6.411 0 0 1-3.612-3.612c-.992-2.5-.763-8.435-.763-11.198 0-2.764-.22-8.706.763-11.199a6.411 6.411 0 0 1 3.612-3.611c2.5-.992 8.435-.763 11.198-.763 2.764 0 8.706-.22 11.199.763a6.411 6.411 0 0 1 3.611 3.611c.992 2.5.763 8.435.763 11.199 0 2.763.23 8.706-.763 11.198Z"/></svg>
